test_waco/assets/instagram.svg

<svg fill="none" height="42" viewBox="0 0 42 42" width="42" xmlns="http://www.w3.org/2000/svg" xmlns:xlink="http://www.w3.org/1999/xlink"><linearGradient id="a" gradientUnits="userSpaceOnUse" x1="39.2" x2="1.75" y1="21" y2="21"><stop offset="0" stop-color="#00e6e3"/><stop offset="1" stop-color="#00ff68"/></linearGradient><path clip-rule="evenodd" d="m13.0637 1.8655c2.0528-.0945 2.7073-.1155 7.9363-.1155s5.8835.02275 7.9345.1155 3.451.42 4.676.89425c1.2827.48475 2.4465 1.2425 3.409 2.2225.98.96075 1.736 2.12275 2.219 3.40725.476 1.225.8015 2.625.896 4.6725.0945 2.0562.1155 2.7107.1155 7.938 0 5.229-.0228 5.8835-.1155 7.9362-.0928 2.0475-.42 3.4475-.896 4.6725-.483 1.2847-1.2403 2.4486-2.219 3.4108-.9625.98-2.1263 1.736-3.409 2.219-1.225.476-2.625.8015-4.6725.896-2.0545.0945-2.709.1155-7.938.1155s-5.8835-.0228-7.9363-.1155c-2.0475-.0928-3.44745-.42-4.67245-.896-1.28464-.4831-2.44856-1.2403-3.41075-2.219-.97934-.9613-1.7372-2.1247-2.22075-3.409-.47425-1.225-.79975-2.625-.89425-4.6725-.0945-2.0563-.1155-2.7108-.1155-7.938 0-5.229.02275-5.8835.1155-7.9345s.42-3.451.89425-4.676c.48426-1.28436 1.24271-2.4477 2.2225-3.409.96082-.97912 2.12358-1.73697 3.40725-2.22075 1.225-.47425 2.625-.79975 4.6725-.89425zm15.715 3.465c-2.03-.09275-2.639-.112-7.7787-.112-5.1398 0-5.7488.01925-7.7788.112-1.8777.08575-2.8962.399-3.5752.66325-.89775.35-1.54.76475-2.21375 1.4385-.63867.62134-1.13018 1.37774-1.4385 2.21375-.26425.679-.5775 1.6975-.66325 3.5752-.09275 2.03-.112 2.639-.112 7.7788 0 5.1397.01925 5.7487.112 7.7787.08575 1.8778.399 2.8963.66325 3.5753.308.8347.79975 1.5925 1.4385 2.2137.62125.6388 1.379 1.1305 2.21375 1.4385.679.2643 1.6975.5775 3.5752.6633 2.03.0927 2.6373.112 7.7788.112s5.7487-.0193 7.7787-.112c1.8778-.0858 2.8963-.399 3.5753-.6633.8977-.35 1.54-.7647 2.2137-1.4385.6388-.6212 1.1305-1.379 1.4385-2.2137.2643-.679.5775-1.6975.6633-3.5753.0927-2.03.112-2.639.112-7.7787 0-5.1398-.0193-5.7488-.112-7.7788-.0858-1.8777-.399-2.8962-.6633-3.5752-.35-.89775-.7647-1.54-1.4385-2.21375-.6213-.63863-1.3777-1.13013-2.2137-1.4385-.679-.26425-1.6975-.5775-3.5753-.66325zm-10.2374 21.6037c1.3731.5717 2.9021.6488 4.3258.2183s2.6538-1.3419 3.4802-2.5786 1.1978-2.7219 1.0508-4.202-.8033-2.8632-1.8569-3.9132c-.6715-.6711-1.4836-1.185-2.3776-1.5047-.8941-.3197-1.8478-.4371-2.7927-.3439s-1.8574.3947-2.6717.8829c-.8144.4881-1.5104 1.1508-2.0379 1.9402-.5275.7895-.8735 1.6861-1.0129 2.6252-.1394.9392-.0689 1.8976.2065 2.8063.2755.9086.7489 1.7449 1.3864 2.4486.6374.7037 1.4229 1.2573 2.3 1.6209zm-4.5378-12.9307c.9188-.9188 2.0096-1.6476 3.21-2.1449 1.2005-.4972 2.4871-.7531 3.7865-.7531s2.586.2559 3.7865.7531c1.2004.4973 2.2912 1.2261 3.21 2.1449s1.6476 2.0096 2.1449 3.21c.4972 1.2005.7531 2.4871.7531 3.7865s-.2559 2.586-.7531 3.7865c-.4973 1.2004-1.2261 2.2912-2.1449 3.21-1.8556 1.8556-4.3723 2.898-6.9965 2.898s-5.1409-1.0424-6.9965-2.898-2.898-4.3723-2.898-6.9965 1.0424-5.1409 2.898-6.9965zm19.0855-1.4245c.2277-.2148.41-.4731.536-.7595.1261-.2865.1934-.5954.198-.9084.0045-.3129-.0537-.6236-.1714-.91368-.1177-.29004-.2923-.55353-.5137-.77485-.2213-.22133-.4848-.396-.7748-.51366-.2901-.11767-.6008-.17595-.9137-.17139-.313.00456-.6219.07187-.9084.19795-.2864.12607-.5447.30835-.7595.53603-.4177.4428-.6464 1.031-.6375 1.6396.0088.6087.2546 1.1899.685 1.6204.4305.4304 1.0117.6761 1.6204.685.6086.0089 1.1968-.2198 1.6396-.6375z" fill="url(#a)" fill-rule="evenodd"/></svg>

<svg width="42" height="42" viewBox="0 0 42 42" fill="none" xmlns="http://www.w3.org/2000/svg">
<path fill-rule="evenodd" clip-rule="evenodd" d="M13.0637 1.8655C15.1165 1.771 15.771 1.75 21 1.75C26.229 1.75 26.8835 1.77275 28.9345 1.8655C30.9855 1.95825 32.3855 2.2855 33.6105 2.75975C34.8932 3.2445 36.057 4.00225 37.0195 4.98225C37.9995 5.943 38.7555 7.105 39.2385 8.3895C39.7145 9.6145 40.04 11.0145 40.1345 13.062C40.229 15.1182 40.25 15.7727 40.25 21C40.25 26.229 40.2272 26.8835 40.1345 28.9362C40.0417 30.9837 39.7145 32.3837 39.2385 33.6087C38.7555 34.8934 37.9982 36.0573 37.0195 37.0195C36.057 37.9995 34.8932 38.7555 33.6105 39.2385C32.3855 39.7145 30.9855 40.04 28.938 40.1345C26.8835 40.229 26.229 40.25 21 40.25C15.771 40.25 15.1165 40.2272 13.0637 40.1345C11.0162 40.0417 9.61625 39.7145 8.39125 39.2385C7.10661 38.7554 5.94269 37.9982 4.9805 37.0195C4.00116 36.0582 3.2433 34.8948 2.75975 33.6105C2.2855 32.3855 1.96 30.9855 1.8655 28.938C1.771 26.8817 1.75 26.2272 1.75 21C1.75 15.771 1.77275 15.1165 1.8655 13.0655C1.95825 11.0145 2.2855 9.6145 2.75975 8.3895C3.24401 7.10514 4.00246 5.9418 4.98225 4.9805C5.94307 4.00138 7.10583 3.24353 8.3895 2.75975C9.6145 2.2855 11.0145 1.96 13.062 1.8655H13.0637ZM28.7787 5.3305C26.7487 5.23775 26.1397 5.2185 21 5.2185C15.8602 5.2185 15.2512 5.23775 13.2212 5.3305C11.3435 5.41625 10.325 5.7295 9.646 5.99375C8.74825 6.34375 8.106 6.7585 7.43225 7.43225C6.79358 8.05359 6.30207 8.80999 5.99375 9.646C5.7295 10.325 5.41625 11.3435 5.3305 13.2212C5.23775 15.2512 5.2185 15.8602 5.2185 21C5.2185 26.1397 5.23775 26.7487 5.3305 28.7787C5.41625 30.6565 5.7295 31.675 5.99375 32.354C6.30175 33.1887 6.7935 33.9465 7.43225 34.5677C8.0535 35.2065 8.81125 35.6982 9.646 36.0062C10.325 36.2705 11.3435 36.5837 13.2212 36.6695C15.2512 36.7622 15.8585 36.7815 21 36.7815C26.1415 36.7815 26.7487 36.7622 28.7787 36.6695C30.6565 36.5837 31.675 36.2705 32.354 36.0062C33.2517 35.6562 33.894 35.2415 34.5677 34.5677C35.2065 33.9465 35.6982 33.1887 36.0062 32.354C36.2705 31.675 36.5837 30.6565 36.6695 28.7787C36.7622 26.7487 36.7815 26.1397 36.7815 21C36.7815 15.8602 36.7622 15.2512 36.6695 13.2212C36.5837 11.3435 36.2705 10.325 36.0062 9.646C35.6562 8.74825 35.2415 8.106 34.5677 7.43225C33.9464 6.79362 33.19 6.30212 32.354 5.99375C31.675 5.7295 30.6565 5.41625 28.7787 5.3305ZM18.5413 26.9342C19.9144 27.5059 21.4434 27.583 22.8671 27.1525C24.2908 26.722 25.5209 25.8106 26.3473 24.5739C27.1737 23.3372 27.5451 21.852 27.3981 20.3719C27.2511 18.8918 26.5948 17.5087 25.5412 16.4587C24.8697 15.7876 24.0576 15.2737 23.1636 14.954C22.2695 14.6343 21.3158 14.5169 20.3709 14.6101C19.426 14.7033 18.5135 15.0048 17.6992 15.493C16.8848 15.9811 16.1888 16.6438 15.6613 17.4332C15.1338 18.2227 14.7878 19.1193 14.6484 20.0584C14.509 20.9976 14.5795 21.956 14.8549 22.8647C15.1304 23.7733 15.6038 24.6096 16.2413 25.3133C16.8787 26.017 17.6642 26.5706 18.5413 26.9342ZM14.0035 14.0035C14.9223 13.0847 16.0131 12.3559 17.2135 11.8586C18.414 11.3614 19.7006 11.1055 21 11.1055C22.2994 11.1055 23.586 11.3614 24.7865 11.8586C25.9869 12.3559 27.0777 13.0847 27.9965 14.0035C28.9153 14.9223 29.6441 16.0131 30.1414 17.2135C30.6386 18.414 30.8945 19.7006 30.8945 21C30.8945 22.2994 30.6386 23.586 30.1414 24.7865C29.6441 25.9869 28.9153 27.0777 27.9965 27.9965C26.1409 29.8521 23.6242 30.8945 21 30.8945C18.3758 30.8945 15.8591 29.8521 14.0035 27.9965C12.1479 26.1409 11.1055 23.6242 11.1055 21C11.1055 18.3758 12.1479 15.8591 14.0035 14.0035ZM33.089 12.579C33.3167 12.3642 33.499 12.1059 33.625 11.8195C33.7511 11.533 33.8184 11.2241 33.823 10.9111C33.8275 10.5982 33.7693 10.2875 33.6516 9.99742C33.5339 9.70738 33.3593 9.44389 33.1379 9.22257C32.9166 9.00124 32.6531 8.82657 32.3631 8.70891C32.073 8.59124 31.7623 8.53296 31.4494 8.53752C31.1364 8.54208 30.8275 8.60939 30.541 8.73547C30.2546 8.86154 29.9963 9.04382 29.7815 9.2715C29.3638 9.7143 29.1351 10.3025 29.144 10.9111C29.1528 11.5198 29.3986 12.101 29.829 12.5315C30.2595 12.9619 30.8407 13.2076 31.4494 13.2165C32.058 13.2254 32.6462 12.9967 33.089 12.579Z" fill="url(#paint0_linear)"/>
<defs>
<linearGradient id="paint0_linear" x1="39.2" y1="21" x2="1.75" y2="21" gradientUnits="userSpaceOnUse">
<stop stop-color="#00E6E3"/>
<stop offset="1" stop-color="#00FF68"/>
</linearGradient>
</defs>
</svg>
